!!!!SEGMENT: pl-sa--132-a-iii-32--003_haydn-joseph--cassatio-in-b-presto.krn
!!!cenid: 17xx:567
!!!COM: Haydn, Joseph
!!!COM-rismid: pe55803
!!!CDT: 1732/03/31-1809/05/31
!!!CNT: Austrian
!!!OPR: Cassatio in B
!!!OTL: Presto
!!!OMV: 003
!!!PDT:
!!!AGN: Secular; Cassation
!!!SMS-siglum: PL-SA
!!!SMS-shelfmark: 132/A III 32
!!!SMS-shelfwork: 001-003 M
!!!SMS-variant:
!!!SMS-altvar:
!!!NIFC-rismid: 1001077259
!!!URL-scan: http://bc.bdsandomierz.pl/dlibra/publication/1489/edition/1457/content
!!!ONB-nifc: UWAGA: części Cassatio: Adagio, Menuet, Presto, Menuet, Presto
!!!key:
**kern	**kern	**dynam	**kern	**dynam	**kern
*part4	*part3	*part3	*part2	*part2	*part1
*staff4	*staff3	*	*staff2	*	*staff1
*group1	*group1	*	*group1	*	*group1
*Iempty	*Iviola	*	*Ivioln	*	*Ivioln
*I"Baſso	*I"Viola	*	*I"Violino Secondo	*	*I"Violino Primo
*I'B	*I'Vla	*	*I'Vl 2	*	*I'Vl 1
*clefF4	*clefC3	*	*clefG2	*	*clefG2
*k[e-a-b-]	*k[a-b-e-]	*	*k[e-a-b-]	*	*k[e-a-b-]
*E-:	*E-:	*	*E-:	*	*E-:
*M2/4	*M2/4	*	*M2/4	*	*M2/4
*[AABBCCDD]	*[AABBCCDD]	*	*[AABBCCDD]	*	*>[AABBCCDD]
*>A	*>A	*>A	*>A	*>A	*>A
!	!	!	!	!	!LO:TX:a:t=problem:8\right:global
!LO:TX:a:t=Presto	!LO:TX:a:t=Presto	!	!	!	!
!	!	!	!LO:TX:a:t=Presto	!	!LO:TX:a:t=Presto
8r	8r	.	8r	.	8b-\
=1	=1	=1	=1	=1	=1
!LO:TX:a:t=problem:4\right:global	!	!	!	!	!
4E-\	4e-\	.	8G/ 8e-	.	8ee-\L
.	.	.	4G/ 4e-	.	8gg\
4r	4r	.	.	.	8bb-\
.	.	.	8G/ 8e-	.	8eee-\J
=2	=2	=2	=2	=2	=2
!	!	!	!	!	!LO:TX:a:t=problem:4\right:global
4E-\	4e-\	.	8G/ 8e-	.	4bb-\
.	.	.	4G/ 4e-	.	.
4r	4r	.	.	.	8gg\L
.	.	.	8G/ 8e-	.	8ee-\J
=3	=3	=3	=3	=3	=3
!	!	!	!	!	!LO:TX:t=P:problem:mixed beam
4BB-/	4B-/	.	8B-/ 8f	.	8dd\L
.	.	.	4B-/ 4f	.	8ff\
8r	8r	.	.	.	8aa-\
8BB-/	8B-/	.	8B-/ 8f	.	8a-/J
=4	=4	=4	=4	=4	=4
!LO:TX:a:t=problem:8\right:global	!	!	!	!	!
8E-\L	4e-\	.	4B-/ 4f	.	4a-/
8BB-\	.	.	.	.	.
8E-\J	8B-\L	.	8G/ 8e-	.	8g/L
8r	8e-\J	.	8r	.	8B-/J
=5	=5	=5	=5	=5	=5
4E-\	4e-\	.	8G/ 8e-	.	8e-/L
.	.	.	4G/ 4e-	.	8g/
!LO:N:vis=8	!	!	!	!	!
4r	4r	.	.	.	8b-/
.	.	.	8G/ 8e-	.	8ee-/J
=6	=6	=6	=6	=6	=6
4AA-/	4A-/	.	8A-/ 8e-	.	4cc\
.	.	.	4A-/ 4e-	.	.
4r	4r	.	.	.	8a-/L
.	.	.	8A-/ 8e-	.	8f/J
=7	=7	=7	=7	=7	=7
4GG/	4G/	.	8B-/ 8e-	.	8.b-T\L
.	.	.	4e-/	.	.
!	!	!	!	!	!LO:TX:a:t=problem:32\right:global
.	.	.	.	.	32a-\LL
.	.	.	.	.	32b-\JJJ
8AA-/L	8A-/L	.	.	.	8cc/L
8AAn/J	8An/J	.	8c/	.	8e-/J
=8	=8	=8	=8	=8	=8
!LO:TX:t=P:problem:mixed beam	!	!	!	!	!
8BB-/L	8B-\L	.	4c/	.	4e-/
8F\	8f\	.	.	.	.
!	!	!	!	!	!LO:TX:t=P:problem:mixed beam
8B-\J	8b-\J	.	8B-/	.	8d/L
8r	8r	.	8r	.	8ff\J
!	!LO:TX:a:t=problem:custos e-	!	!	!	!
=9	=9	=9	=9	=9	=9
*	*	*	*^	*	*
!	!	!	!LO:TX:a:t=problem:8\right:global	!	!	!
8r	8r	.	8cc/	8f\	.	8.ee-T\L
!	!	!	!LO:TX:a:t=problem:4\right:global	!	!	!
8An\L	8an\L	.	4cc/	4f\	.	.
.	.	.	.	.	.	32dd\LL
.	.	.	.	.	.	32ee-\JJJ
!	!	!	!	!	!	!LO:LB:g=original
8A\	8a\	.	.	.	.	8ccc\L
8A\J	8a\J	.	8cc/	8f\	.	8ee-\J
!	!	!	!LO:LB:g=original	!	!	!
=10	=10	=10	=10	=10	=10	=10
8r	8r	.	8dd/	8f\	.	8dd\L
!LO:TX:t=P:problem:mixed beam	!LO:TX:t=P:problem:mixed beam	!	!	!	!	!
8B-\L	8b-\L	.	4dd/	4f\	.	8ff\
8BB-/	8B-/	.	.	.	.	8bb-\
8B-\J	8b-\J	.	8dd/	8f\	.	8ddd\J
!LO:LB:g=original	!	!	!	!	!	!
=11	=11	=11	=11	=11	=11	=11
!	!	!	!	!	!	!LO:N:vis=8
8r	8r	.	8cc/	8f\	.	8.ee-T\L
8An\L	8an\L	.	4cc/	4f\	.	.
.	.	.	.	.	.	32dd\LL
.	.	.	.	.	.	32ee-\JJJ
8A\	8a\	.	.	.	.	8ccc\L
8A\J	8a\J	.	8cc/	8f\	.	8ee-\J
=12	=12	=12	=12	=12	=12	=12
*	*	*	*	*	*	*^
8r	8r	.	8dd/	8f\	.	8ryy	8dd\
!	!LO:TX:t=P:problem:mixed beam	!	!	!	!	!	!
8BB-/L	8b-\L	.	4dd/	4f\	.	4bb-/	4dd\
8D/	8B-/	.	.	.	.	.	.
8F/J	8b-\J	.	8dd/	8f\	.	8bb-/	8dd\
=13	=13	=13	=13	=13	=13	=13	=13
4B-\	4b-\	.	4dd/	4f\	.	8bb-/L	8dd\L
!	!	!	!	!	!	!LO:TX:a:t=problem:16\right:global	!
.	.	.	.	.	.	16bb-/L	16dd\L
.	.	.	.	.	.	16ddd/JJ	16ff\JJ
4r	4r	.	4r	4rcyy	.	8bb-/L	8dd\L
.	.	.	.	.	.	16bb-/L	16dd\L
.	.	.	.	.	.	16ddd/JJ	16ff\JJ
*	*	*	*v	*v	*	*	*
=14	=14	=14	=14	=14	=14	=14
8r	8r	.	8r	.	8bb-/L	8dd\L
8G\L	8g\L	.	8dd\L	.	8bb-/	8dd\
8G\	8g\	.	8dd\	.	8bb-/	8dd\
8G\J	8g\J	.	8dd\J	.	8bb-/J	8dd\J
=15	=15	=15	=15	=15	=15	=15
8E-\	8e-\	.	8cc\	.	8ccc/	8ee-\
8r	8r	.	8r	.	8raa	8rc
8F\	8f\	.	8cc\	.	8aan/	8ee-\
8r	8r	.	8r	.	8ryy	8rc
=16	=16	=16	=16	=16	=16	=16
4BB-/	4B-/	.	4b-\	.	4.bb-/	4.dd\
4r	8r	.	8r	.	.	.
*	*	*	*	*	*v	*v
.	8ryy	.	8ryy	.	8r
=17:|!|:	=17:|!|:	=17:|!|:	=17:|!|:	=17:|!|:	=17:|!|:
*>B	*>B	*>B	*>B	*>B	*>B
8r	8g\	.	8b-\	.	8r
=18	=18	=18	=18	=18	=18
4r	8.gt\L	.	8.b-T\L	.	4r
!	!	!	!LO:TX:a:t=problem:32\right:global	!	!
.	32f\LL	.	32a-\LL	.	.
.	32g\JJJ	.	32b-\JJJ	.	.
8r	8a-\L	.	8cc\L	.	8r
!	!	!	!	!	!LO:TX:a:t=problem:notatka 't' innym atramentem
8C/	8g\J	.	8b-\J	.	8een\
=19	=19	=19	=19	=19	=19
8.F\L	4f\	.	4a-/	.	16ff\LL
.	.	.	.	.	16aa-\
.	.	.	.	.	16ccc\
!LO:TX:a:t=problem:16\right:global	!	!	!	!	!
16G\Jk	.	.	.	.	16bb-\JJ
!	!	!	!	!	!LO:LB:g=original
16F\LL	8r	.	8r	.	16aa-\LL
16E-\	.	.	.	.	16gg\
16D\	8f\	.	8a-/	.	16ff\
16C\JJ	.	.	.	.	16ee-X\JJ
!	!LO:LB:g=original	!	!LO:LB:g=original	!	!
=20	=20	=20	=20	=20	=20
!	!LO:TX:a:t=problem: urwana kartka	!	!	!	!
4BB-/	8.f\Lyy	.	8.a-T/L	.	4dd\
.	32e-\LL	.	32g/LL	.	.
.	32f\JJJ	.	32a-/JJJ	.	.
8r	8g\L	.	8b-/L	.	8r
8BB-/	8f\J	.	8a-/J	.	8dd\
!LO:LB:g=original	!	!	!	!	!
=21	=21	=21	=21	=21	=21
4E-\	4e-\	.	4g/	.	16ee-\LL
.	.	.	.	.	16ff\
.	.	.	.	.	16gg\
.	.	.	.	.	16aa-\JJ
8r	4r	.	8r	.	16bb-\LL
.	.	.	.	.	16gg\
8G\	.	.	8b-/	.	16ff\
.	.	.	.	.	16ee-\JJ
=22	=22	=22	=22	=22	=22
8A-\L	8B-/L	.	8f/L	.	8dd\L
8A-\J	8B-/J	.	8e-/J	.	8ee-\J
8r	4r	.	8r	.	16bb-\LL
.	.	.	.	.	16gg\
8G\	.	.	8b-\	.	16ff\
.	.	.	.	.	16ee-\JJ
=23	=23	=23	=23	=23	=23
!	!	!	!	!	!LO:TX:a:t=problem:notatka 't' innym atramentem
8A-\L	8B-/L	.	8f/L	.	8dd\L
8G\J	8B-/J	.	8e-/J	.	8ee-\J
8r	8r	.	8r	.	16bb-\LL
.	.	.	.	.	16gg\
8G\	8g\	.	8b-\	.	16ff\
.	.	.	.	.	16ee-\JJ
=24	=24	=24	=24	=24	=24
4F\	4f\	.	4.a-/	.	16dd\LL
.	.	.	.	.	16ee-\
.	.	.	.	.	16ff\
.	.	.	.	.	16ee-\JJ
4BB-/	4B-/	.	.	.	16dd\LL
.	.	.	.	.	16cc\
.	.	.	8d/	.	16b-\
.	.	.	.	.	16a-\JJ
=25	=25	=25	=25	=25	=25
4E-\	4e-\	.	4e-/	.	8g\L
.	.	.	.	.	16ee-\L
.	.	.	.	.	16dd\JJ
4r	4r	.	4r	.	16ee-\LL
.	.	.	.	.	16dd\
.	.	.	.	.	16ee-\
.	.	.	.	.	16dd\JJ
=26	=26	=26	=26	=26	=26
!	!	!	!	!	!LO:TX:t=P:problem:mixed beam
8r	8r	.	8r	.	8ee-\L
8B-\L	8b-\L	.	8b-/L	.	8b-\
!	!LO:TX:a:t=SIC:s=8g	!	!	!	!
8G\	8f\	.	8g/	.	8g/
8E-\J	8e-\J	.	8e-/J	.	8e-/J
=27	=27	=27	=27	=27	=27
4BB-/	4B-/	.	4B-/	.	4B-/
4r	4r	.	4r	.	8r
.	.	.	.	.	8b-\
!	!	!	!	!	!LO:LB:g=original
=28	=28	=28	=28	=28	=28
4E-\	4e-\	.	8G/ 8e-	.	8ee-\L
.	.	.	4G/ 4e-	.	8gg\
4r	4r	.	.	.	8bb-\
.	.	.	8G/ 8e-	.	8eee-\J
=29	=29	=29	=29	=29	=29
4E-\	4e-\	.	8G/ 8e-	.	4bb-\
.	.	.	4G/ 4e-	.	.
4r	4r	.	.	.	8gg\L
.	.	.	8G/ 8e-	.	8ee-\J
!	!	!	!LO:LB:g=original	!	!
=30	=30	=30	=30	=30	=30
!	!	!	!	!	!LO:TX:t=P:problem:mixed beam
4BB-/	4B-/	.	8B-/ 8f	.	8dd\L
.	.	.	4B-/ 4f	.	8ff\
8r	8r	.	.	.	8aa-\
8BB-/	8B-/	.	8B-/ 8f	.	8a-/J
=31	=31	=31	=31	=31	=31
8E-\L	8e-\L	.	4B-/ 4f	.	4a-/
8BB-\J	8B-\	.	.	.	.
8E-\	8e-\J	.	8G/ 8e-	.	8g/L
8r	8r	.	8r	.	8B-/J
!LO:LB:g=original	!LO:LB:g=original	!	!	!	!
=32	=32	=32	=32	=32	=32
!	!LO:TX:a:t=problem: urwana kartka	!	!	!	!
4G\	4e-\yy	.	8G/ 8e-	.	8e-/L
.	.	.	4G/ 4e-	.	8g/J
4r	4r	.	.	.	8b-\L
.	.	.	8G/ 8e-	.	8ee-\J
=33	=33	=33	=33	=33	=33
4AA-/	4A-/	.	8A-/ 8e-	.	4cc\
.	.	.	4A-/ 4e-	.	.
4r	4r	.	.	.	8a-/L
.	.	.	8A-/ 8e-	.	8f/J
=34	=34	=34	=34	=34	=34
4GG/	4G/	.	8B-/ 8e-	.	(8.b-T\L
.	.	.	4e-/	.	.
.	.	.	.	.	32a-\LL
.	.	.	.	.	32b-\JJJ)
!	!	!	!	!	!LO:TX:t=P:problem:mixed beam
8AA-/L	8A-/L	.	.	.	8cc\L
8AAn/J	8An/J	.	8c/	.	8e-/J
=35	=35	=35	=35	=35	=35
8BB-\L	8B-\L	.	4c/	.	4e-/
8F\	8f\	.	.	.	.
8B-\J	8b-\J	.	8B-/	.	8d/L
8r	8r	.	8r	.	8b-/J
=36	=36	=36	=36	=36	=36
8r	8r	.	8B-/ 8f	.	8.a-/L
8D\L	8d\L	.	4B-/ 4f	.	.
.	.	.	.	.	32g/LL
.	.	.	.	.	32a-/JJJ
8D\	8d\	.	.	.	8ff\L
8D\J	8d\J	.	8B-/ 8f	.	8a-\J
=37	=37	=37	=37	=37	=37
8r	8r	.	8B-/ 8g	.	8g\L
!	!LO:TX:a:t=problem: 4 ósemki zamiast 3	!	!	!	!
8E-\L	8e-\L	.	4B-/ 4g	.	8b-\
8E-\	8e-\	.	.	.	8ee-\
!	!LO:N:vis=8	!	!	!	!
8E-\J	16e-\	.	8B-/ 8g	.	8gg\J
!	!LO:N:vis=8	!	!	!	!
.	16e-\J	.	.	.	.
=38	=38	=38	=38	=38	=38
8r	8r	.	8B-/ 8f	.	8.a-/L
8D\L	8d\L	.	4B-/ 4f	.	.
.	.	.	.	.	32g/LL
.	.	.	.	.	32a-/JJJ
8D\	8d\	.	.	.	8ff\L
8D\J	8d\J	.	8B-/ 8f	.	8a-\J
!	!	!	!	!	!LO:LB:g=original
=39	=39	=39	=39	=39	=39
8r	8r	.	8B-/ 8g	.	8g/
*	*	*	*	*	*^
8E-\L	8e-\L	.	4B-/ 4g	.	4ee-/	4g\
8G\	8g\	.	.	.	.	.
8B-\J	8b-\J	.	8B-/ 8g	.	8ee-/	8g\
!	!	!	!LO:LB:g=original	!	!	!
=40	=40	=40	=40	=40	=40	=40
4E-\	4e-\	.	4B-/ 4g	.	8ee-/L	8g\L
.	.	.	.	.	16ee-/L	16g\L
.	.	.	.	.	16gg/JJ	16b-\JJ
4r	4r	.	4r	.	8ee-/L	8g\L
.	.	.	.	.	16ee-/L	16g\L
.	.	.	.	.	16gg/JJ	16b-\JJ
=41	=41	=41	=41	=41	=41	=41
8r	8r	.	8r	.	8ee-/L	8g\L
8C/L	8c\L	.	8g/L	.	8ee-/	8g\
8C/	8c\	.	8g/	.	8ee-/	8g\
8C/J	8c\J	.	8g/J	.	8ee-/J	8g\J
=42	=42	=42	=42	=42	=42	=42
8BB-/	8A-/	.	8f/	.	8ff/	8a-\
8r	8r	.	8r	.	8rg	8r
8BB-/	8B-/	.	8B-/ 8f	.	8dd/	8a-\
8r	8r	.	8r	.	8r	8rdd
!LO:LB:g=original	!LO:LB:g=original	!	!	!	!	!
=43	=43	=43	=43	=43	=43	=43
*	*	*	*^	*	*	*
4E-;\	4e-;\	.	4.G;</ 4.e-;;	2ryy	.	4.ee-;/	4.g;\
8r	8r	.	.	.	.	.	.
8ryy	8ryy	.	8r	.	.	8r	8rddyy
*	*	*	*v	*v	*	*	*
*	*	*	*	*	*v	*v
=44:|!|:	=44:|!|:	=44:|!|:	=44:|!|:	=44:|!|:	=44:|!|:
*>C	*>C	*>C	*>C	*>C	*
*	*	*	*	*	*Xtuplet
!	!	!	!	!LO:DY:t=p.	!LO:TX:a:t=problem:triole bez oznaczeń
8r	8r	.	8r	p	(24e-/LL
.	.	.	.	.	24f/
.	.	.	.	.	24e-/JJ)
=45	=45	=45	=45	=45	=45
8r	8r	.	8r	.	8g/
!	!	!LO:DY:t=p.	!	!	!
8E-\L	8B-/L	p	8d-X/L	.	8r
8E-\J	8B-/J	.	8d-/J	.	8r
8r	8r	.	8r	.	(24e-/LL
.	.	.	.	.	24f/
.	.	.	.	.	24e-/JJ)
=46	=46	=46	=46	=46	=46
8r	8r	.	8r	.	8a-/
8E-\L	8A-/L	.	8c/L	.	8r
8E-\J	8A-/J	.	8c/J	.	8r
8r	8r	.	8r	.	(24e-/LL
.	.	.	.	.	24f/
.	.	.	.	.	24e-/JJ)
=47	=47	=47	=47	=47	=47
8r	8r	.	8r	.	8dd-X\
8E-\L	8G/L	.	8B-/L	.	8r
!	!	!	!	!	!LO:LB:g=original
8E-\J	8G/J	.	8B-/J	.	8r
8r	8r	.	8r	.	24e-/LL
.	.	.	.	.	24f/
.	.	.	.	.	24e-/JJ
=48	=48	=48	=48	=48	=48
8r	8r	.	8r	.	8cc\
8E-\L	8A-/L	.	8c/L	.	8r
8E-\J	8A-/J	.	8c/J	.	8r
8r	8r	.	8r	.	24e-/LL
.	.	.	.	.	24f/
.	.	.	.	.	24e-/JJ
!	!	!	!LO:LB:g=original	!	!
=49	=49	=49	=49	=49	=49
*	*	*	*	*	*2\right
!	!	!	!	!	!LO:TX:a:t=problem:2\right:global
8r	8r	.	8r	.	2ee-\
8G\L	8B-/L	.	8d-X/L	.	.
8G\	8B-/	.	8d-/	.	.
8G\J	8B-/J	.	8d-/J	.	.
=50	=50	=50	=50	=50	=50
8A-\	8A-/	.	8c/	.	8ee-\L
8r	8r	.	8r	.	8cc\J
4r	4r	.	4r	.	8a-/L
.	.	.	.	.	8g/J
=51	=51	=51	=51	=51	=51
!LO:TX:a:t=SIC:s=8D-	!	!	!	!	!
8D\	8A-/	.	8d-X/	.	8f/
8r	8r	.	8r	.	8r
.	.	.	8qqd-/	.	.
8E-\	8E-/	.	8B-/L	.	16r
.	.	.	.	.	16g/LL
8r	8r	.	16A-/L	.	16f/
.	.	.	16B-/JJ	.	16g/JJ
=52	=52	=52	=52	=52	=52
4AA-/	4A-/	.	8A-/	.	4a-/
.	.	.	8r	.	.
8r	8r	.	8r	.	8r
8ryy	8ryy	.	8ryy	.	8ryy
!LO:LB:g=original	!	!	!	!	!
=53:|!|:	=53:|!|:	=53:|!|:	=53:|!|:	=53:|!|:	=53:|!|:
*>D	*>D	*>D	*>D	*>D	*>D
8r	8r	.	8r	.	8e-/
=54	=54	=54	=54	=54	=54
8GG/L	2B-/	.	[2e-/	.	8ee-\L
8GG/	.	.	.	.	8dd-X\
8GG/	.	.	.	.	8dd-\
8GG/J	.	.	.	.	8dd-\J
=55	=55	=55	=55	=55	=55
8AA-/L	2A-/	.	2e-/]	.	4cc\
8AA-/	.	.	.	.	.
8AA-/	.	.	.	.	8ee-\L
8AA-/J	.	.	.	.	8ee-\J
!	!LO:LB:g=original	!	!	!	!
=56	=56	=56	=56	=56	=56
*	*2\right	*	*	*	*
!	!	!	!LO:TX:a:t=bis	!	!
!	!LO:TX:a:t=problem:2\right:global	!	!LO:TX:a:t=problem: takt zapisany powtórką	!	!LO:TX:t=P:problem:mixed beam
8BB-/L	2d-X\	.	[2e-/	.	8ee-\L
8BB-/	.	.	.	.	8g/
8BB-/	.	.	.	.	8g/
8BB-/J	.	.	.	.	8g/J
=57	=57	=57	=57	=57	=57
8C/L	2c\	.	2e-/]yy	.	4a-/
8C/	.	.	.	.	.
!	!	!	!	!	!LO:TX:a:t=problem:mixed beam
8C/	.	.	.	.	8cc\L
8C/J	.	.	.	.	8e-/J
=58	=58	=58	=58	=58	=58
!	!	!	!	!	!LO:TX:t=P:problem:mixed beam
8GG/L	[2E-/	.	2B-/	.	8b-\L
8GG/	.	.	.	.	8d-X/
8GG/	.	.	.	.	8d-/
8GG/J	.	.	.	.	8d-/J
!	!	!	!	!	!LO:LB:g=original
=59	=59	=59	=59	=59	=59
4AA-/	4E-/]	.	4A-/	.	4c/
4r	4r	.	4c/	.	8e-/L
.	.	.	.	.	8a-/J
=60	=60	=60	=60	=60	=60
8D-X\	8d-X\	.	8d-X/	.	8f/
8r	8r	.	8r	.	8r
.	.	.	8qqd-/	.	16qqa-/
8E-\	8e-X\	.	8B-/L	.	8g/L
8r	8r	.	16A-/L	.	(16f/L
.	.	.	16B-/JJ	.	16g/JJ)
=61	=61	=61	=61	=61	=61
4AA-/	4A-/	.	4.A-/	.	4a-/
!LO:TX:a:t=Da Capo (al) Segno	!LO:TX:a:t=Da Capo al Segno Final	!	!	!	!LO:TX:a:t=Da Capo (al) Segno
8r	8r	.	.	.	8r
!LO:TX:b:t=Volti	!	!	!LO:TX:a:t=Da Capo Final al Segno	!	!
8ryy	8ryy	.	8r	.	8ryy
=:|!	=:|!	=:|!	=:|!	=:|!	=:|!
*-	*-	*-	*-	*-	*-
!!!system-decoration: [(g1)]
!!!RDF**kern: >= above
!!!RDF**kern: <= below
!!!AIN: 1 empty 1 viola 2 violn
!!!ENC: Anna Matuszewska
!!!END: 2020-08-13
